!!!COA1:	Busnoys, Antoine
!!!CDT1:	~1430///-1492/11/06
!!!COA2:	Martini, Johannes
!!!CDT2:	~1440///-~1497//
!!!OTL:	J'ay pris amours
!!!AGN:	Song; Chanson
!!!SCT:	Bus3069
!!!SCA:	Bus3069
!!!ONB:	Also Mar3038. Should be listed as Busnoys(?)/Martini?
!!!voices:	4
**kern	**kern	**kern	**kern
*staff4	*staff3	*staff2	*staff1
*Ivox	*Ivox	*Ivox	*Ivox
*I"Bassus	*I"Tenor	*I"Altus	*I"Superius
*I'B	*I'T	*I'A	*I'S
*clefF4	*clefGv2	*clefGv2	*clefG2
*k[b-]	*k[b-]	*k[b-]	*k[b-]
*M2/1	*M2/1	*M2/1	*M2/1
*met(C|)	*met(C|)	*met(C|)	*met(C|)
=1-	=1-	=1-	=1-
!	!LO:TX:Z=30:t=Antifrasis tenorizat | ypsodum epitonpluzat	!	!LO:TX:Z=14:t=Rondeau
!	!LO:TX:Z=5:t=T of the original, anonymous song is here quoted in inversion.	!	!
0D	0A	0d	0r
=2	=2	=2	=2
1C	1A	1e	0a
[1D	1A	1f	.
=3	=3	=3	=3
1D]	0B-	0d	1f
1BB-	.	.	1g
=4	=4	=4	=4
1C	0A	0r	0a
1D	.	.	.
=5	=5	=5	=5
0GG	0d	1r	1.b-
.	.	1B-	.
.	.	.	4a
.	.	.	4g
=6	=6	=6	=6
0r	1r	1A	1f
.	1B-	1G	1g
=7	=7	=7	=7
0r	1A	1F	1a
.	1G	2G	1b-
.	.	2B-	.
=8	=8	=8	=8
0r	1F	1A	1cc
.	2G	1B-	2b-
.	2B-	.	[2g
=9	=9	=9	=9
0r	1A	1r	2g]
.	.	.	2f
.	1B-	1G	2g
.	.	.	4f
.	.	.	4e
=10	=10	=10	=10
0r	1r	1F	1d
.	1G	1E	1r
=11	=11	=11	=11
0r	1F	2D	1d
.	.	1D	.
.	1E	.	1g
.	.	2C#i	.
=12	=12	=12	=12
0r	2D	2D	2f
.	1F	1A	4e
.	.	.	4d
.	.	.	2c
.	2E	2G	[2e
=13	=13	=13	=13
0r	2F	2A	4e]
.	.	.	4d
.	2A	2F	1d
.	1G	1E	.
.	.	.	2c#i
=14	=14	=14	=14
0D	[0A	2D	0d
.	.	1F	.
.	.	4E	.
.	.	4D	.
=15	=15	=15	=15
1C	1A]	1E	0r
1D	1B-	1D	.
=16	=16	=16	=16
0E	0c	1r	0g
.	.	2.G	.
.	.	4A	.
=17	=17	=17	=17
1.D	0d	2B-	1.f
.	.	2.A	.
.	.	4G	.
[2F	.	2F	[2a
=18	=18	=18	=18
4F]	1r	1c	4a]
4E	.	.	4g
2C	.	.	2e
2D	1D	2A	2f
4C	.	[2A	4e
4BB-	.	.	4d
=19	=19	=19	=19
1AA	1C	4A]	1e
.	.	4G	.
.	.	4F	.
.	.	4E	.
2r	1D	1F	2A
[2BB-	.	.	[2d
=20	=20	=20	=20
4BB-]	0F	0r	4d]
4AA	.	.	4c
2.FF	.	.	2.A
4GG	.	.	4B-
4AA	.	.	4c
4BB-	.	.	4d
=21	=21	=21	=21
2C	0E	0r	2e
2GG	.	.	2Bni
1AA	.	.	1c#i
=22	=22	=22	=22
2r	[0F	1.f	0d
1D	.	.	.
4C	.	4e	.
4BB-	.	4d	.
=23	=23	=23	=23
2AA	1F]	2c	0r
2.BB-	.	2.d	.
.	1G	.	.
4GG	.	4c	.
[2C	.	[2e	.
=24	=24	=24	=24
4C]	0A	4e]	0r
4BB-	.	4d	.
2.D	.	2.f	.
4E	.	4g	.
2F	.	2a	.
=25	=25	=25	=25
2G	1B-	2d	0r
2.D	.	2.f	.
.	[1F	.	.
4C	.	4e	.
[2BB-	.	[2d	.
=26	=26	=26	=26
4BB-]	1F]	4d]	0r
4AA	.	4c	.
2BB-	.	2d	.
2C	1E	2e	.
2AA	.	2c#i	.
=27	=27	=27	=27
0BB-	0D	1d	0d
.	.	1D	.
=28	=28	=28	=28
0AA	0A	0E	0c
=29	=29	=29	=29
1BB-	1F	0D	[0d
2GG	1G	.	.
[2BB-	.	.	.
=30	=30	=30	=30
4BB-]	1F	1r	1d]
4C	.	.	.
1D	.	.	.
.	1E	1G	1e
2C	.	.	.
=31	=31	=31	=31
2D	1.D	2.F	1.f
1F	.	.	.
.	.	4G	.
.	.	2.A	.
4E	4E	.	4e
4D	4F	4B-	4d
=32	=32	=32	=32
1CN	1GN	1cN	1eN
1r	1r	1r	1r
=33	=33	=33	=33
0r	0d	0r	2f
.	.	.	4g
.	.	.	4a
.	.	.	2b-
.	.	.	[2a
=34	=34	=34	=34
0r	1c	0r	4a]
.	.	.	4g
.	.	.	2e
.	1d	.	2d
.	.	.	[2f
=35	=35	=35	=35
0r	1A	0r	4f]
.	.	.	4e
.	.	.	2c
.	1B-	.	2r
.	.	.	[2g
=36	=36	=36	=36
0r	0c	0r	4g]
.	.	.	4f
.	.	.	4e
.	.	.	4d
.	.	.	1e
=37	=37	=37	=37
1D	[0d	1.f	2d
.	.	.	2.a
2D	.	.	.
.	.	.	4g
2G	.	[2d	[2b-
=38	=38	=38	=38
2F	0d]	4d]	4b-]
.	.	4c	4a
2G	.	2B-	1g
1D	.	1A	.
.	.	.	2f#i
=39	=39	=39	=39
0GG	1r	2G	1g
.	.	2.B-	.
.	1B-	.	[1d
.	.	4A	.
.	.	2G	.
=40	=40	=40	=40
1r	1A	2.F#i	2d]
.	.	.	2c
.	.	4E	.
1GG	1G	1G	1B-
=41	=41	=41	=41
1.D	1.F	1r	1.A
.	.	1d	.
4E	4G	.	2G
4F	4A	.	.
=42	=42	=42	=42
1.G	1B-	1.d	1G
.	1G	.	1r
4F	.	2e	.
4E	.	.	.
=43	=43	=43	=43
2.D	0A	1f	0r
4E	.	.	.
1F	.	1c	.
=44	=44	=44	=44
2G	[0B-	1B-	1.g
2.E-i	.	.	.
.	.	1e-i	.
4F	.	.	.
[2G	.	.	[2b-
=45	=45	=45	=45
4G]	0B-]	1d	4b-]
4F	.	.	4a
4E-i	.	.	4g
4D	.	.	4f
1E-i	.	1G	1g
=46	=46	=46	=46
1D	1r	1A	1.f
1r	1d	1B-	.
.	.	.	[2b-
=47	=47	=47	=47
0r	1c	1F	4b-]
.	.	.	4a
.	.	.	1a
.	1B-	1G	.
.	.	.	2g
=48	=48	=48	=48
1F	1A	1D	1a
2D	1d	1r	2f
[2G	.	.	2d
=49	=49	=49	=49
2G]	1r	0r	2e
2F	.	.	1f
2D	1B-	.	.
2E	.	.	4e
.	.	.	4d
=50	=50	=50	=50
1F	1A	1r	1c
[1BB-	1B-	1F	1r
=51	=51	=51	=51
2BB-]	1.F	1.B-	0r
1D	.	.	.
4C	2G	4A	.
4BB-	.	4G	.
=52	=52	=52	=52
1AA	1A	2.F#i	1c
.	.	4E	.
2GG	1B-	1G	2B-
[2BB-	.	.	[2d
=53	=53	=53	=53
4BB-]	1F	1r	4d]
4C	.	.	4e
2D	.	.	2f
2E	1E	1B-	2g
2G	.	.	2b-
=54	=54	=54	=54
2F	0A	1.c	2a
4E	.	.	4g
4D	.	.	4f
2C	.	.	2e
2F	.	4B-	2c
.	.	4A	.
=55	=55	=55	=55
4G	0G	2.B-	2e
4F	.	.	.
4E	.	.	2f
4D	.	4A	.
1E	.	2B-	1g
.	.	2c	.
=56	=56	=56	=56
2D	[0Al	2.d	2f
2.F	.	.	2.a
.	.	4c	.
.	.	2A	.
4E	.	.	4g
4D	.	[2A	4f
4C	.	.	4e
=57	=57	=57	=57
1D	0A_	2A]	2f
.	.	2F	4e
.	.	.	4d
1AA	.	1E	2.c#i
.	.	.	4Bni
=58	=58	=58	=58
1r	0A_	[0Dl	[0dl
1D	.	.	.
=59	=59	=59	=59
0Dl	0A]	0D]	0d]
==	==	==	==
*-	*-	*-	*-
!!!RDF**kern: l=long note in original notation
!!!RDF**kern: i=editorial accidental
!!!RDF**kern: N=signum congruentiae
!!!ENC:	Chris Gage 04-24-2015
!!!END:	2015/06/07/
!!!EED:	Jesse Rodin
!!!EEV:	2015/09/21/
!!!ONB:	Translated from MusicXML and edited on 2015/09/21/ by Craig Sapp
!!muse2ps: C^Busnoys(?)/Martini?^i2I150v85,85,85,150Q16
